X: 248
T: Moonrise (reel)
C: BB 12/06
N: 132233
L: 1/8
M: 4/4
R: reel
Q: 380
K: A
zD |"A"EAAc "Bm7"BAFD |"A"EA cf ecBA |"Bm"FB (3BAB dBFG |"F#m"AcAF "E"EFGB|
"A"Acec "E"BGEG |"D"AFDF "A"ECA,C | "D"DEFA "Bm7"Bd AF | "E7"EGBG "A"A2 :|
AB |"A"c2 ec "F#m"agfe | "A"c2 ec "D"dfed | "A"c2 ec "E7"Bdeg | "F#m"afce "D"f2 ed |
"A"c2 ec "F#m"agfe | "A"c2 ec "D"dfed | "A"cA"E"BG "D"FAdf | "A"ec"E"BG "A"A2 :|
%%%%%%%%%%%%%
